!!!!SEGMENT: pl-sa--230-a-vi-34--008_luna-georgius--litania-speculum.krn
!!!cenid: 17xx:502
!!!COM: Luna, Georgius
!!!COM-rismID: pe41010079
!!!CDT:
!!!CNT:
!!!OPR: Litania
!!!OTL: Speculum
!!!OMV: 008
!!!PDT:
!!!AGN: Sacred; Mass
!!!SMS-siglum: PL-SA
!!!SMS-shelfmark: 230/A VI 34
!!!SMS-shelfwork: 001-008 M
!!!SMS-variant: Violino Imo: PL-SA-230/A VI 34: 10
!!!SMS-altvar: Violino Imo: PL-SA-230/A VI 34: 31
!!!NIFC-rismSourceID: 1001070084
!!!NIFC-rismChildID: 1001070084
!!!NIFC-islandoraID: none
!!!URL-pdf-islandora:
!!!URL-scan: https://bc.bdsandomierz.pl/dlibra/publication/1606/edition/1574/content @EN{Scan in the Sandomierz Diocese Digital Library} @PL{Skany w portalu Cyfrowa Biblioteka Diecezjalna w Sandomierzu}
!!!ONB-nifc: UWAGA: części Litanii: Simphonia, Kirie, Pater de caelis, Sancta Maria, Mater Christi, Mater amabilis, Virgo prudentissima, Speculum, Rosa mistica, Salus infirmorum, Regina angelorum, Agnus Dei
!!!AIN: 3 empty 1 tenor 2 violn 1 vox
!!!key:
**kern	**dynam	**kern	**dynam	**kern	**dynam	**kern	**text	**kern	**text	**kern	**kern
*part7	*part7	*part6	*part6	*part5	*part5	*part4	*part4	*part3	*part3	*part2	*part1
*staff7	*	*staff6	*	*staff5	*	*staff4	*staff4	*staff3	*staff3	*staff2	*staff1
*Iempty	*	*Ivioln	*	*Ivioln	*	*Itenor	*	*Ivox	*	*Iempty	*Iempty
*I"Fundamenti	*	*I"Violino 2do.	*	*I"Violino 1mo	*	*I"Tenore	*	*I"Canto	*	*I"Cornu ex F	*I"Cornu ex F
*I'Vc.	*	*I'Vn II	*	*I'Vn I	*	*I'T.	*	*I'C.	*	*I'C. in F	*I'C
*clefF4	*	*clefG2	*	*clefG2	*	*clefC4	*	*clefC1	*	*clefG2	*clefG2
*	*	*	*	*	*	*	*	*	*	*ITrd4c7	*ITrd-3c-5
*k[b-]	*	*k[b-]	*	*k[b-]	*	*k[b-]	*	*k[b-]	*	*k[b-]	*k[b-]
*F:	*	*F:	*	*F:	*	*F:	*	*F:	*	*F:	*F:
*M2/4	*	*M2/4	*	*M2/4	*	*M2/4	*	*M2/4	*	*M2/4	*M2/4
=1	=1	=1	=1	=1	=1	=1	=1	=1	=1	=1	=1
*	*	*Xtuplet	*	*Xtuplet	*	*	*	*	*	*	*
!LO:TX:a:t=P::problem=znaki przykluczowe w źródle&colon; B-, BB-	!	!LO:TUP:a:problem=klamra łukowa, odwrócone "C" zamiast numeru	!	!LO:TUP:a:problem=klamra łukowa, odwrócone "C" zamiast numeru	!	!	!	!	!	!	!
!LO:TX:a:t=P:problem=caudy z prawej strony	!	!LO:TX:i:b:t=Speculum	!	!LO:TX:b:i:t=Speculum	!	!	!	!	!	!	!
!LO:TX:i:b:t=Speculum	!	!LO:TX:a:t=P:problem=caudy z prawej strony	!	!LO:TX:a:t=P:problem=caudy z prawej strony	!	!	!	!	!	!LO:TX:i:b:t=Speculum	!LO:TX:i:b:t=Speculum
!	!	!LO:TUP:a:problem=klamra łukowa, odwrócone "C" zamiast numeru	!	!	!	!	!	!	!	!	!
!	!	!	!	!	!	!LO:TX:b:i:t=Speculum	!	!	!	!	!
!	!	!	!	!	!	!LO:N:vis=00	!	!LO:N:vis=00	!	!	!
8F\L	.	24dd\LL	.	24ff\LL	.	0re	.	0ree	.	8r	8r
.	.	24cc\	.	24ee\	.	.	.	.	.	.	.
.	.	24b-\J	.	24dd\J	.	.	.	.	.	.	.
!	!	!	!	!	!	!	!	!	!	!LO:TX:a:t=P:problem=caudy z prawej strony	!LO:TX:a:t=P:problem=caudy z prawej strony
8F\	.	8a\J	.	8cc\J	.	.	.	.	.	8a\L	8ccc\L
8F\	.	8r	.	8r	.	.	.	.	.	8a\	8ccc\
8F\J	.	8b-\	.	8dd\	.	.	.	.	.	8b-\J	8ddd\J
=2	=2	=2	=2	=2	=2	=2	=2	=2	=2	=2	=2
!	!	!LO:TUP:b:problem=klamra łukowa, odwrócone "C" zamiast numeru	!	!LO:TUP:a:problem=klamra łukowa, odwrócone "C" zamiast numeru	!	!	!	!	!	!	!
8F\L	.	24b-/LL	.	24dd\LL	.	.	.	.	.	8r	8r
.	.	24a/	.	24cc\	.	.	.	.	.	.	.
.	.	24g/J	.	24b-\J	.	.	.	.	.	.	.
8F\	.	8a/J	.	8cc\J	.	.	.	.	.	8a\L	8ccc\L
8F\	.	8r	.	8r	.	.	.	.	.	8a\	8ccc\
8F\J	.	8g/	.	8b-\	.	.	.	.	.	8g\J	8bb-\J
!	!	!	!	!	!	!	!	!	!	!LO:LB:g=original	!
=3	=3	=3	=3	=3	=3	=3	=3	=3	=3	=3	=3
!	!	!LO:TUP:b:problem=klamra łukowa, odwrócone "C" zamiast numeru	!	!LO:TUP:b:problem=klamra łukowa, odwrócone "C" zamiast numeru	!	!	!	!	!	!	!
8C/L	.	24g/LL	.	24b-/LL	.	.	.	.	.	8r	8r
.	.	24f/	.	24a/	.	.	.	.	.	.	.
.	.	24e/J	.	24g/J	.	.	.	.	.	.	.
8C/	.	8f/J	.	8a/J	.	.	.	.	.	8f\L	8aa\L
8C/	.	8r	.	8r	.	.	.	.	.	8f\	8aa\
8C/J	.	8B-/	.	8g/	.	.	.	.	.	8c\J	8gg\J
!LO:LB:g=original	!	!	!	!	!	!	!	!	!	!	!
=4	=4	=4	=4	=4	=4	=4	=4	=4	=4	=4	=4
8F\L	.	8A/	.	4f/	.	.	.	.	.	8A/L	16gg\LL
.	.	.	.	.	.	.	.	.	.	.	16aa\J
8G\	.	8ryy	.	.	.	.	.	.	.	16f/L	8aa\J
.	.	.	.	.	.	.	.	.	.	16f/JJ	.
8A-X\	.	8r	.	8r	.	.	.	.	.	4f/	4aa\
!	!	!	!	!	!LO:DY:a	!	!	!	!	!	!
8F\J	.	8a-X/	.	8cc\	p	.	.	.	.	.	.
=5	=5	=5	=5	=5	=5	=5	=5	=5	=5	=5	=5
!	!LO:DY:a	!	!	!	!	!LO:N:vis=00	!	!LO:N:vis=00	!	!LO:N:vis=00	!LO:N:vis=00
8F\L	p	8b-/	.	8dd-X\	.	0re	.	0ree	.	0r	0r
8F\	.	4a-X/	.	4cc\	.	.	.	.	.	.	.
8F\	.	.	.	.	.	.	.	.	.	.	.
8F\J	.	8g/	.	8b-\	.	.	.	.	.	.	.
=6	=6	=6	=6	=6	=6	=6	=6	=6	=6	=6	=6
8F\L	.	8g/	.	8b-/	.	.	.	.	.	.	.
8F\	.	4f/	.	4a-X/	.	.	.	.	.	.	.
8F\	.	.	.	.	.	.	.	.	.	.	.
8F\J	.	[>8ff\	.	[>8aa\	.	.	.	.	.	.	.
=7	=7	=7	=7	=7	=7	=7	=7	=7	=7	=7	=7
8BBn/L	.	8ff\]	.	8aa\]	.	.	.	.	.	.	.
8BB/	.	4een\	.	4gg\	.	.	.	.	.	.	.
8BB/	.	.	.	.	.	.	.	.	.	.	.
8BB/J	.	8dd\	.	8ff\	.	.	.	.	.	.	.
=8	=8	=8	=8	=8	=8	=8	=8	=8	=8	=8	=8
!	!LO:DY:b	!	!	!	!	!	!	!	!	!	!
8C/L	f	4cc\	.	4eem>\	.	.	.	.	.	.	.
8D/	.	.	.	.	.	.	.	.	.	.	.
8E/	.	8r	.	8r	.	.	.	.	.	.	.
!	!	!	!LO:DY:a:rj	!	!	!	!	!	!	!	!
8D/J	.	8cc\	f	8cc\	.	.	.	.	.	.	.
=9	=9	=9	=9	=9	=9	=9	=9	=9	=9	=9	=9
!	!	!	!	!	!	!LO:N:vis=00	!	!LO:N:vis=00	!	!	!
8C/L	.	(>32cc\LLL	.	(>32cc\LLL	.	0r	.	0r	.	8c/L	8gg\L
.	.	32dd\	.	32dd\	.	.	.	.	.	.	.
.	.	32ee\	.	32ee\)	.	.	.	.	.	.	.
.	.	32ff\JJ)	.	32ff\JJ	.	.	.	.	.	.	.
8r	.	8gg\J	.	8gg\J	.	.	.	.	.	8r	8r
8C/J	.	(>32cc\LLL	.	(>32cc\LLL	.	.	.	.	.	8c/J	8gg\J
.	.	32dd\	.	32dd\	.	.	.	.	.	.	.
.	.	32ee\	.	32ee\)	.	.	.	.	.	.	.
.	.	32ff\JJ)	.	32ff\JJ	.	.	.	.	.	.	.
8r	.	8gg\J	.	8gg\J	.	.	.	.	.	8r	8r
!	!	!	!	!LO:LB:g=original	!	!	!	!	!	!	!
=10	=10	=10	=10	=10	=10	=10	=10	=10	=10	=10	=10
!LO:TX:a:t=P:problem=mixed beam	!	!	!	!	!	!	!	!	!	!	!
8E\L	.	8cc\L	.	8cc\L	.	.	.	.	.	8c\L	8gg\L
8C\	.	8gg\J	.	8bb-\J	.	.	.	.	.	8g\J	8bb-\J
.	.	.	.	.	.	.	.	.	.	8qqg/	8qqbb-/
8F\	.	4ff\	.	4aa\	.	.	.	.	.	4f\	4aa\
8FF/J	.	.	.	.	.	.	.	.	.	.	.
!	!	!LO:LB:g=original	!	!	!	!	!	!	!	!	!
=11	=11	=11	=11	=11	=11	=11	=11	=11	=11	=11	=11
8C/L	.	(>32cc\LLL	.	(>32cc\LLL	.	.	.	.	.	8c/L	8gg\L
.	.	32dd\	.	32dd\	.	.	.	.	.	.	.
.	.	32ee\	.	32ee\)	.	.	.	.	.	.	.
.	.	32ff\JJ)	.	32ff\JJ	.	.	.	.	.	.	.
8r	.	8gg\J	.	8gg\J	.	.	.	.	.	8r	8r
8C/J	.	(>32cc\LLL	.	(>32cc\LLL	.	.	.	.	.	8c/J	8gg\J
.	.	32dd\	.	32dd\	.	.	.	.	.	.	.
.	.	32ee\	.	32ee\)	.	.	.	.	.	.	.
.	.	32ff\JJ)	.	32ff\JJ	.	.	.	.	.	.	.
8r	.	8gg\J	.	8gg\J	.	.	.	.	.	8r	8r
=12	=12	=12	=12	=12	=12	=12	=12	=12	=12	=12	=12
!LO:TX:a:t=P:problem=mixed beam	!	!	!	!	!	!	!	!	!	!	!
8E\L	.	8d/L	.	8a\L	.	.	.	.	.	8c\L	8gg\L
8C\	.	8g/J	.	8b-\J	.	.	.	.	.	8g\J	8bb-\J
.	.	8qqg/	.	8qqb-/	.	.	.	.	.	8qqg/	8qqbb-/
8F\	.	4f/	.	4am>/	.	.	.	.	.	4f\	4aam>\
8FF/J	.	.	.	.	.	.	.	.	.	.	.
!	!	!	!	!	!	!	!	!	!	!	!LO:LB:g=original
=13	=13	=13	=13	=13	=13	=13	=13	=13	=13	=13	=13
!	!	!	!	!	!	!LO:N:vis=00	!	!LO:N:vis=00	!	!	!
8F\L	.	16aa\LL	.	16aa\LL	.	0r	.	0r	.	4f\	4aa\
.	.	16ee\J	.	16ee\J	.	.	.	.	.	.	.
8A\	.	8ff\J	.	8ff\J	.	.	.	.	.	.	.
8B-\	.	16dd/LL	.	16dd\LL	.	.	.	.	.	4r	4r
.	.	16b-/	.	16b-\	.	.	.	.	.	.	.
8d\J	.	16a/	.	16a\	.	.	.	.	.	.	.
.	.	16g/JJ	.	16g\JJ	.	.	.	.	.	.	.
=14	=14	=14	=14	=14	=14	=14	=14	=14	=14	=14	=14
!LO:TX:a:t=P:problem=mixed beam	!	!	!	!	!	!	!	!	!	!	!
8c\L	.	4f/	.	4f/	.	.	.	.	.	4A/	4ff\
8B-\	.	.	.	.	.	.	.	.	.	.	.
8c\	.	4gM>/	.	4gM>/	.	.	.	.	.	4c/	4gg\
8C/J	.	.	.	.	.	.	.	.	.	.	.
!LO:LB:g=original	!	!	!	!	!	!	!	!	!	!	!
=15	=15	=15	=15	=15	=15	=15	=15	=15	=15	=15	=15
8F\L	.	16aa\LL	.	16aa\LL	.	.	.	.	.	4f\	4aa\
.	.	16ee\J	.	16ee\J	.	.	.	.	.	.	.
!	!LO:DY:b	!	!	!	!	!	!	!	!	!	!
8A\	p	8ff\J	.	8ff\J	.	.	.	.	.	.	.
8B-\	.	16dd/LL	.	16dd\LL	.	.	.	.	.	4r	4r
.	.	16b-/	.	16b-\	.	.	.	.	.	.	.
8d\J	.	16a/	.	16a\	.	.	.	.	.	.	.
.	.	16g/JJ	.	16g\JJ	.	.	.	.	.	.	.
=16	=16	=16	=16	=16	=16	=16	=16	=16	=16	=16	=16
!LO:TX:a:t=P:problem=mixed beam	!	!	!	!	!	!	!	!	!	!	!
8c\L	.	4f/	.	4f/	.	.	.	.	.	4A/	4ff\
8B-\	.	.	.	.	.	.	.	.	.	.	.
8c\	.	4gM>/	.	4gM>/	.	.	.	.	.	4c/	4gg\
8C/J	.	.	.	.	.	.	.	.	.	.	.
=17	=17	=17	=17	=17	=17	=17	=17	=17	=17	=17	=17
!	!LO:DY:b	!	!	!	!	!LO:N:vis=00	!	!LO:N:vis=0	!	!	!
8F\L	f	8f/L	.	8f/L	.	0r	.	1rcc	.	8A/L	8ff\L
8F\	.	(<32cc/LL	.	(<32cc/LL	.	.	.	.	.	8A/	8ff\
.	.	32b-/	.	32b-/	.	.	.	.	.	.	.
.	.	32a/	.	32a/	.	.	.	.	.	.	.
.	.	32g/JJJ)	.	32g/JJJ)	.	.	.	.	.	.	.
8F\	.	8f/L	.	8f/L	.	.	.	.	.	8A/	8ff\
8F\J	.	32cc/LL	.	(<32cc/LL	.	.	.	.	.	8A/J	8ff\J
.	.	(<32b-/	.	32b-/	.	.	.	.	.	.	.
.	.	32a/	.	32a/	.	.	.	.	.	.	.
.	.	32g/JJJ)	.	32g/JJJ)	.	.	.	.	.	.	.
=18	=18	=18	=18	=18	=18	=18	=18	=18	=18	=18	=18
4F\	.	4f/	.	4f/	.	.	.	.	.	4A/	4ff\
4r	.	4r	.	4r	.	.	.	.	.	4r	4r
!	!	!	!	!LO:LB:g=original	!	!	!	!	!	!	!
=19||	=19||	=19	=19	=19	=19	=19	=19	=19	=19	=19	=19
!	!LO:DY:a	!	!LO:DY:a	!LO:TUP:a:problem=odwrócone "C" zamiast numeru (bez klamry)	!LO:DY:a	!	!	!LO:TX:a:t=P:problem=caudy z prawej strony	!	!LO:N:vis=00	!LO:N:vis=00
8F\L	p	24dd\LL	p	24ff\LL	p	.	.	8ff\	Spe-	0r	0r
.	.	24cc\	.	24ee\	.	.	.	.	.	.	.
.	.	24b-\J	.	24dd\J	.	.	.	.	.	.	.
8F\	.	8a\J	.	8cc\J	.	.	.	4cc\	-cu-	.	.
8F\	.	8r	.	8r	.	.	.	.	.	.	.
8F\J	.	8b-\	.	8dd\	.	.	.	8dd\	-l(um)	.	.
=20	=20	=20	=20	=20	=20	=20	=20	=20	=20	=20	=20
8F\L	.	24b-/LL	.	24dd\LL	.	.	.	8dd\	ju-	.	.
.	.	24a/	.	24cc\	.	.	.	.	.	.	.
.	.	24g/J	.	24b-\J	.	.	.	.	.	.	.
8F\	.	8a/J	.	8cc\J	.	.	.	4cc\	-sti-	.	.
!	!	!LO:LB:g=original	!	!	!	!	!	!	!	!	!
8F\	.	8r	.	8r	.	.	.	.	.	.	.
8F\J	.	8g/	.	8cc\	.	.	.	8b-\	.	.	.
=21	=21	=21	=21	=21	=21	=21	=21	=21	=21	=21	=21
!	!	!LO:TUP:a:problem=klamra łukowa	!	!LO:N:vis=0	!	!	!	!	!	!	!
8C/L	.	24g/LL	.	24b-\LL	.	1r	.	8b-\	.	.	.
.	.	24f/	.	24a\	.	.	.	.	.	.	.
.	.	24e/J	.	24g\J	.	.	.	.	.	.	.
8C/	.	8f/J	.	8a\J	.	.	.	4a\	-ci-	.	.
8C/	.	8r	.	8r	.	.	.	.	.	.	.
!	!	!	!	!	!LO:DY:a	!	!	!	!	!	!
8C/J	.	8B-/	.	8g/	f	.	.	8g\	-ae	.	.
=22	=22	=22	=22	=22	=22	=22	=22	=22	=22	=22	=22
8F\L	.	4A/	.	4fM>/	.	.	.	4f/	.	.	.
8F\	.	.	.	.	.	.	.	.	.	.	.
8A\	.	16f/LL	.	8f/L	.	.	.	4r	.	.	.
.	.	32g/L	.	.	.	.	.	.	.	.	.
.	.	(<32a/	.	.	.	.	.	.	.	.	.
8G\J	.	32b-/	.	48g/LL	.	.	.	.	.	.	.
.	.	.	.	48a/	.	.	.	.	.	.	.
.	.	32cc/	.	.	.	.	.	.	.	.	.
.	.	.	.	48b-/	.	.	.	.	.	.	.
.	.	32dd/	.	48cc/	.	.	.	.	.	.	.
.	.	.	.	48dd/	.	.	.	.	.	.	.
.	.	32ee/JJJ)	.	.	.	.	.	.	.	.	.
.	.	.	.	48ee/JJJ	.	.	.	.	.	.	.
=23	=23	=23	=23	=23	=23	=23	=23	=23	=23	=23	=23
!	!	!	!	!	!	!LO:TX:a:t=P:problem=caudy z prawej strony	!	!	!	!	!
8F\L	.	16ff\LL	.	16ff\LL	.	4A\	o-	4ff\	o-	8f\L	8aa\L
.	.	16ee\	.	16ee\	.	.	.	.	.	.	.
8G\	.	16dd\	.	16dd\	.	.	.	.	.	16f\L	16aa\L
.	.	16cc\JJ	.	16cc\JJ	.	.	.	.	.	16f\JJ	16aa\JJ
8A\	.	16b-/LL	.	16b-/LL	.	8A\	-ra	8ff\	-ra	8f\L	8aa\L
.	.	16a/	.	16a/	.	.	.	.	.	.	.
8B-\J	.	16g/	.	16g/	.	8A\	pro	8ff\	pro	8f\J	8aa\J
.	.	16f/JJ	.	16f/JJ	.	.	.	.	.	.	.
!	!	!	!	!	!	!	!	!	!	!LO:LB:g=original	!
=24	=24	=24	=24	=24	=24	=24	=24	=24	=24	=24	=24
!LO:TX:a:t=P:problem=mixed beam	!	!LO:TX:a:t=P:problem=mixed beam	!	!	!	!	!	!	!	!	!
!	!	!	!	!	!	!LO:SIC:s=8A	!	!	!	!	!
!	!	!	!	!	!	!LO:N:vis=16	!	!	!	!	!
8c\L	.	8cc\L	.	8cc\	.	8A/	no-	8ff\	no-	8c/L	8gg\L
8C/	.	8c/J	.	8r	.	8G/	-bis	8ee\	-bis	16c/L	16gg\L
.	.	.	.	.	.	.	.	.	.	16c/JJ	16gg\JJ
8E/	.	8gg\L	.	8r	.	8r	.	8r	.	4c/	4gg\
!	!	!	!	!	!	!	!LO:SIC:o=sa-	!	!	!	!
8C/J	.	8ee\J	.	8gg\	.	[>8c\	se-	8ee\	se-	.	.
=25	=25	=25	=25	=25	=25	=25	=25	=25	=25	=25	=25
8F\L	.	16cc\LL	.	24aa\LL	.	4c\]	-des	4ff\	.	8r	8r
.	.	.	.	24gg\	.	.	.	.	.	.	.
.	.	16cc\	.	.	.	.	.	.	.	.	.
.	.	.	.	24ff\J	.	.	.	.	.	.	.
8F\	.	16cc\	.	8cc\J	.	.	.	.	.	16f\LL	8aa\L
.	.	16cc\JJ	.	.	.	.	.	.	.	16f\J	.
8F\	.	16cc\LL	.	8r	.	4c\	.	4ff\	-des	8f\	16aa\L
.	.	16cc\	.	.	.	.	.	.	.	.	16aa\JJ
8F\J	.	16cc\	.	8aa\	.	.	.	.	.	8f\J	8aa\
.	.	16cc\JJ	.	.	.	.	.	.	.	.	.
!LO:LB:g=original	!	!	!	!	!	!	!	!	!	!	!
=26	=26	=26	=26	=26	=26	=26	=26	=26	=26	=26	=26
8C/L	.	16ee\LL	.	24gg\LL	.	4g\	sa-	4ee\	sa-	8r	8r
.	.	.	.	24ff\	.	.	.	.	.	.	.
.	.	16ee\	.	.	.	.	.	.	.	.	.
.	.	.	.	24ee\J	.	.	.	.	.	.	.
8C/	.	16ee\	.	8cc\J	.	.	.	.	.	16c/LL	16gg\LL
.	.	16ee\JJ	.	.	.	.	.	.	.	16c/J	16gg\JJ
8C/	.	16ee\LL	.	8r	.	4g\	-pi-	4ee\	-pi-	8c/	8gg\L
.	.	16ee\	.	.	.	.	.	.	.	.	.
8C/J	.	16ee\	.	8gg\	.	.	.	.	.	8c/J	8gg\J
.	.	16ee\JJ	.	.	.	.	.	.	.	.	.
!	!	!	!	!LO:LB:g=original	!	!LO:LB:g=original	!	!	!	!	!
=27	=27	=27	=27	=27	=27	=27	=27	=27	=27	=27	=27
8G\L	.	16dd\LL	.	24ff\LL	.	4f\	-en-	4dd\	-en-	8r	8r
.	.	.	.	24ee\	.	.	.	.	.	.	.
.	.	16dd\	.	.	.	.	.	.	.	.	.
.	.	.	.	24dd\J	.	.	.	.	.	.	.
8G\	.	16dd\	.	8g\J	.	.	.	.	.	16g\LL	16gg\LL
.	.	16dd\JJ	.	.	.	.	.	.	.	16g\J	16gg\JJ
8G\	.	16dd\LL	.	8r	.	4f\	-ci-	4dd\	-ci-	8g\	8gg\L
.	.	16dd\	.	.	.	.	.	.	.	.	.
8G\J	.	16dd\	.	8ff\	.	.	.	.	.	8g\J	8gg\J
.	.	16dd\JJ	.	.	.	.	.	.	.	.	.
!	!	!	!	!	!	!	!	!LO:LB:g=original	!	!	!LO:LB:g=original
=28	=28	=28	=28	=28	=28	=28	=28	=28	=28	=28	=28
8C\L	.	8cc\L	.	16ee\LL	.	4e\	-ae	4cc\	-ae	4c/	4gg\
.	.	.	.	16cc\	.	.	.	.	.	.	.
8C\	.	8ee\	.	16dd\	.	.	.	.	.	.	.
.	.	.	.	16ee\JJ	.	.	.	.	.	.	.
8E\	.	8gg\	.	16ff\LL	.	4r	.	4r	.	4r	4r
.	.	.	.	16gg\	.	.	.	.	.	.	.
8D\J	.	8ff\J	.	16aa\	.	.	.	.	.	.	.
.	.	.	.	16bbn\JJ	.	.	.	.	.	.	.
!	!	!LO:LB:g=original	!	!	!	!	!	!	!	!	!
=29	=29	=29	=29	=29	=29	=29	=29	=29	=29	=29	=29
8C\L	.	16ee\LL	.	16ccc\LL	.	4d\	o-	4ee\	o-	8g\L	8gg\L
.	.	16ee\	.	16ccc\	.	.	.	.	.	.	.
8D\	.	16ee\	.	16ccc\	.	.	.	.	.	16g\L	16gg\L
.	.	16ee\JJ	.	16ccc\JJ	.	.	.	.	.	16g\J	16gg\JJ
8E\	.	16ee\LL	.	16ccc\LL	.	8d\	-ra	8ee\	-ra	8g\	8gg\L
.	.	16ee\	.	16ccc\	.	.	.	.	.	.	.
8F\J	.	16ee\	.	16ccc\	.	8d\	pro	8ee\	pro	8g\J	8gg\J
.	.	16ee\JJ	.	16ccc\JJ	.	.	.	.	.	.	.
=30	=30	=30	=30	=30	=30	=30	=30	=30	=30	=30	=30
!LO:TX:a:t=P:problem=mixed beam	!	!	!	!	!	!	!	!	!	!	!
8G\L	.	8ee\L	.	24bbn\LL	.	8c\	no-	8dd\	no-	8g\L	8gg\L
.	.	.	.	24aa\	.	.	.	.	.	.	.
.	.	.	.	24gg\JJ	.	.	.	.	.	.	.
8GG/J	.	8g\J	.	8g/	.	8Bn\	-bis	8dd\	-bis	16g\L	16gg\L
.	.	.	.	.	.	.	.	.	.	16g\JJ	16gg\JJ
8r	.	8r	.	8r	.	4r	.	4r	.	4g\	4gg\
8AA/	.	8ee\	.	8aa\	.	.	.	.	.	.	.
=31	=31	=31	=31	=31	=31	=31	=31	=31	=31	=31	=31
*	*	*	*	*	*	*	*ij	*	*ij	*	*
8D\L	.	16ff\LL	.	16ddd\LL	.	4d\	o-	4ff\	o-	8A/L	8a/L
.	.	16ff\	.	16ddd\	.	.	.	.	.	.	.
8E\	.	16ff\	.	16ddd\	.	.	.	.	.	8A/	8a/
.	.	16ff\JJ	.	16ddd\JJ	.	.	.	.	.	.	.
8F\	.	16ff\LL	.	16ddd\LL	.	8d\	-ra	8ff\	-ra	8A/	8a/
.	.	16ff\	.	16ddd\	.	.	.	.	.	.	.
8G\J	.	16ff\	.	16ddd\	.	8d\	pro	8ff\	pro	8A/J	8a/J
.	.	16ff\JJ	.	16ddd\JJ	.	.	.	.	.	.	.
=32	=32	=32	=32	=32	=32	=32	=32	=32	=32	=32	=32
!LO:TX:a:t=P:problem=mixed beam	!	!	!	!	!	!	!	!	!	!	!
8A\L	.	8ee\L	.	24ccc#X\LL	.	8d\	no-	8ee\	no-	8A/L	8a/L
.	.	.	.	24bb-\	.	.	.	.	.	.	.
.	.	.	.	24aa\JJ	.	.	.	.	.	.	.
8AA/J	.	8cc#X\J	.	8a/	.	8c#X\	-bis	8ee\	-bis	16A/L	16a/L
*	*	*	*	*	*	*	*Xij	*	*Xij	*	*
.	.	.	.	.	.	.	.	.	.	16A/JJ	16a/JJ
8r	.	8r	.	8r	.	8r	.	8r	.	4A/	4a/
8A\	.	8ee\	.	8ee\	.	8cn\	o-	8ee\	o-	.	.
=33	=33	=33	=33	=33	=33	=33	=33	=33	=33	=33	=33
!	!	!	!	!	!	!	!	!	!	!LO:N:vis=00	!LO:N:vis=00
8d\L	.	8ff\L	.	8ff\L	.	4d\	.	4ff\	.	0r	0r
8d\J	.	8ff\J	.	8ff\J	.	.	.	.	.	.	.
8Bn\L	.	16ff\LL	.	16ff\LL	.	8d\	-ra	8ff\	-ra	.	.
.	.	16dd\	.	16dd\	.	.	.	.	.	.	.
8B\J	.	16gg\	.	16gg\	.	(>16e\LL	pro	16gg\LL	pro	.	.
.	.	16ff\JJ	.	16ff\JJ	.	16d\JJ)	.	16ff\JJ	.	.	.
!	!	!	!	!LO:LB:g=original	!	!	!	!	!	!	!
=34	=34	=34	=34	=34	=34	=34	=34	=34	=34	=34	=34
8c\L	.	8ee\L	.	8ee\L	.	4d\	no-	4ee\	no-	.	.
8c\	.	8ee\J	.	8ee\J	.	.	.	.	.	.	.
8A\	.	16ee\LL	.	16ee\LL	.	8c\L	.	8ee\L	.	.	.
.	.	16cc\	.	16cc\	.	.	.	.	.	.	.
8A\J	.	16ff\	.	16ff\	.	16d\L	.	16ff\L	.	.	.
.	.	16ee\JJ	.	16ee\JJ	.	16c\JJ	.	16ee\JJ	.	.	.
=35	=35	=35	=35	=35	=35	=35	=35	=35	=35	=35	=35
8Bn\L	.	8dd\L	.	8dd\L	.	4Bn\	.	4dd\	.	.	.
8B\	.	8dd\J	.	8dd\J	.	.	.	.	.	.	.
8G#X\	.	16dd\LL	.	16dd\LL	.	8B\L	.	8dd\L	.	.	.
.	.	16bn\	.	16bn\	.	.	.	.	.	.	.
8G#\J	.	16ee\	.	16ee\	.	16c\L	.	16ee\L	.	.	.
.	.	16dd\JJ	.	16dd\JJ	.	16B\JJ	.	16dd\JJ	.	.	.
!	!	!	!	!	!	!LO:LB:g=original	!	!	!	!	!
=36	=36	=36	=36	=36	=36	=36	=36	=36	=36	=36	=36
8A\L	.	8cc\L	.	8cc\L	.	8A/	-bis	8cc\	-bis	.	.
8E\	.	8bn\J	.	8bn\J	.	8G#X/	.	8bn\	.	.	.
8E\	.	4r	.	4r	.	8e\	Cau-	4r	.	.	.
8E\J	.	.	.	.	.	8e\	-sa	.	.	.	.
!LO:LB:g=original	!	!	!	!	!	!	!	!LO:LB:g=original	!	!	!
=37	=37	=37	=37	=37	=37	=37	=37	=37	=37	=37	=37
!	!	!	!	!	!	!	!	!	!	!LO:N:vis=00	!LO:N:vis=00
4r	.	4r	.	4r	.	4e\	no-	4r	.	0r	0r
8r	.	8r	.	8r	.	8e\	-stre	8r	.	.	.
8E\	.	8ff#X\	.	8bb-X\	.	8Bn\	le-	8dd\	Lae-	.	.
=38	=38	=38	=38	=38	=38	=38	=38	=38	=38	=38	=38
!	!	!	!	!	!	!LO:SIC:s=4.Bn	!	!	!	!	!
8Bn\L	.	16bn\LL	.	16dd\LL	.	4.Bny\	-ti-	4.dd\	-ti-	.	.
.	.	16b\	.	16dd\	.	.	.	.	.	.	.
8A\	.	16b\	.	16dd\	.	.	.	.	.	.	.
.	.	16b\JJ	.	16dd\JJ	.	.	.	.	.	.	.
*	*	*custos:b	*	*	*	*	*	*	*	*	*
!	!	!LO:LB:g=original	!	!	!	!	!	!	!	!	!
8G#X\	.	16bn\LL	.	16dd\LL	.	.	.	.	.	.	.
.	.	16b\	.	16dd\	.	.	.	.	.	.	.
8E\J	.	16b\	.	16dd\	.	8B\	-ci-	8dd\	-ci-	.	.
.	.	16b\JJ	.	16dd\JJ	.	.	.	.	.	.	.
=39	=39	=39	=39	=39	=39	=39	=39	=39	=39	=39	=39
4A\	.	4a/	.	4cc\	.	4A\	-ae	4cc\	-ae	.	.
4r	.	4r	.	4r	.	4r	.	8cc\	Cau-	.	.
.	.	.	.	.	.	.	.	8cc\	-sa	.	.
=40	=40	=40	=40	=40	=40	=40	=40	=40	=40	=40	=40
4r	.	4r	.	4r	.	4r	.	4cc\	no-	.	.
8r	.	8r	.	8r	.	8r	.	8cc\	-stre	.	.
8D\	.	8ff#X\	.	8aa\	.	8A\	leti	8cc\	le-	.	.
=41	=41	=41	=41	=41	=41	=41	=41	=41	=41	=41	=41
8A\L	.	16a/LL	.	16cc\LL	.	4.A\	-ci-	4.cc\	-ti-	2r	2r
.	.	16a/	.	16cc\	.	.	.	.	.	.	.
8G\	.	16a/	.	16cc\	.	.	.	.	.	.	.
.	.	16a/JJ	.	16cc\JJ	.	.	.	.	.	.	.
8F#X\	.	16a/LL	.	16cc\LL	.	.	.	.	.	.	.
.	.	16a/	.	16cc\	.	.	.	.	.	.	.
8D\J	.	16a/	.	16cc\	.	8A\	-ae	8cc\	-ci-	.	.
.	.	16a/JJ	.	16cc\JJ	.	.	.	.	.	.	.
=42	=42	=42	=42	=42	=42	=42	=42	=42	=42	=42	=42
8G\L	.	8g/L	.	8bn\L	.	8G/	.	8bn\	-ae	8r	8r
8D\J	.	16dd/L	.	(>16ff\L	.	8d\	ora	8ff\	o-	8g\L	8gg\L
.	.	16cc/JJ	.	16ee\JJ)	.	.	.	.	.	.	.
8BBn/L	.	16dd\LL	.	(>16ff\LL	.	8d\	pro	8ff\	-ra	8g\	8gg\
.	.	16cc\	.	16ee\	.	.	.	.	.	.	.
8GG/J	.	16dd\	.	16ff\	.	8d\	.	8ff\	pro	8g\J	8gg\J
.	.	16bn\JJ	.	16dd\JJ)	.	.	.	.	.	.	.
!	!	!	!	!LO:LB:g=original	!	!	!	!	!	!	!
=43	=43	=43	=43	=43	=43	=43	=43	=43	=43	=43	=43
4C/	.	8cc\L	.	8ee\L	.	4c\	no-	4ee\	no-	4c/	4gg\
.	.	8ee\	.	8ccc\J	.	.	.	.	.	.	.
4G\	.	8bn\	.	8dd\L	.	4Bn\	.	4dd\	.	4g\	4gg\
.	.	8dd\J	.	8bbn\J	.	.	.	.	.	.	.
!	!	!	!	!	!	!	!	!	!	!LO:LB:g=original	!
=44	=44	=44	=44	=44	=44	=44	=44	=44	=44	=44	=44
8C\L	.	4ee\	.	8ccc\L	.	4c\	-bis	4cc\	-bis	8c/L	8gg\L
16G\L	.	.	.	8cc\J	.	.	.	.	.	16c/L	16gg\L
16F\JJ	.	.	.	.	.	.	.	.	.	16c/JJ	16gg\JJ
8E\L	.	8r	.	8r	.	4r	.	4r	.	4c/	4gg\
8C\J	.	8g/	.	8g/	.	.	.	.	.	.	.
!	!	!	!	!	!	!LO:LB:g=original	!	!	!	!	!
=45	=45	=45	=45	=45	=45	=45	=45	=45	=45	=45	=45
!	!	!	!	!	!	!LO:N:vis=00	!	!LO:N:vis=00	!	!	!
8G\L	.	8g/L	.	8g/L	.	0r	.	0rcc	.	8g\L	8gg\L
8r	.	(<32a/LL	.	(<32a/LL	.	.	.	.	.	8r	8r
.	.	32bn/	.	32bn/	.	.	.	.	.	.	.
.	.	32cc/	.	32cc/	.	.	.	.	.	.	.
.	.	32dd/JJJ)	.	32dd/JJJ)	.	.	.	.	.	.	.
8G\J	.	8g/L	.	8g/L	.	.	.	.	.	8g\J	8gg\J
8r	.	(<32a/LL	.	(<32a/LL	.	.	.	.	.	8r	8r
.	.	32b/	.	32b/	.	.	.	.	.	.	.
.	.	32cc/	.	32cc/	.	.	.	.	.	.	.
.	.	32dd/JJJ)	.	32dd/JJJ)	.	.	.	.	.	.	.
=46	=46	=46	=46	=46	=46	=46	=46	=46	=46	=46	=46
!	!	!	!	!LO:TX:a:t=P:problem=mixed beam	!	!	!	!	!	!	!
8BBn/L	.	8g/L	.	8g/L	.	.	.	.	.	8g\L	8gg\L
8GG/J	.	8dd/J	.	8ff\J	.	.	.	.	.	8g\J	8bbX\J
4C/	.	4cc\	.	4eem>\	.	.	.	.	.	4c/	4ccc\
=47	=47	=47	=47	=47	=47	=47	=47	=47	=47	=47	=47
8G\L	.	8g/L	.	8g/L	.	.	.	.	.	8g\L	8gg\L
8r	.	(<32a/LL	.	(<32a/LL	.	.	.	.	.	8r	8r
.	.	32b-/	.	32b-/	.	.	.	.	.	.	.
.	.	32cc/	.	32cc/	.	.	.	.	.	.	.
.	.	32dd/JJJ)	.	32dd/JJJ)	.	.	.	.	.	.	.
!	!	!LO:LB:g=original	!	!	!	!	!	!	!	!	!
8G\J	.	8g/L	.	8g/L	.	.	.	.	.	8g\J	8gg\J
8r	.	(<32a/LL	.	(<32a/LL	.	.	.	.	.	8r	8r
.	.	32b-/	.	32b-/	.	.	.	.	.	.	.
.	.	32cc/	.	32cc/	.	.	.	.	.	.	.
.	.	32dd/JJJ)	.	32dd/JJJ)	.	.	.	.	.	.	.
!LO:LB:g=original	!	!	!	!	!	!	!	!	!	!	!LO:LB:g=original
=48	=48	=48	=48	=48	=48	=48	=48	=48	=48	=48	=48
8BBn/L	.	8Bn/L	.	8G/L	.	.	.	.	.	8g\L	8gg\L
8GG/J	.	8d/J	.	8f/J	.	.	.	.	.	8g\J	8gg\J
.	.	.	.	8qqf/	.	.	.	.	.	.	.
4C/	.	4c/	.	4em>/	.	.	.	.	.	4c/	4gg\
=49	=49	=49	=49	=49	=49	=49	=49	=49	=49	=49	=49
!	!	!	!	!	!	!	!	!	!	!	!LO:TX:t=P:problem=łuk nad "1"
!	!	!	!	!	!	!LO:N:vis=00	!	!LO:N:vis=00	!	!	!LO:TX:a:t=1
8C\L	.	8ee\L	.	8ee\L	.	0r	.	0rcc	.	2r	2r
8E\	.	16bn\L	.	16bn\L	.	.	.	.	.	.	.
.	.	16cc\JJ	.	16cc\JJ	.	.	.	.	.	.	.
8F\	.	16a/LL	.	16a/LL	.	.	.	.	.	.	.
.	.	16f/	.	16f/	.	.	.	.	.	.	.
8A\J	.	16e/	.	16e/	.	.	.	.	.	.	.
.	.	16d/JJ	.	16d/JJ	.	.	.	.	.	.	.
=50	=50	=50	=50	=50	=50	=50	=50	=50	=50	=50	=50
!LO:TX:a:t=P:problem=mixed beam	!	!	!	!	!	!	!	!	!	!	!
8G\L	.	4c/	.	4c/	.	.	.	.	.	4g\	4gg\
8F\	.	.	.	.	.	.	.	.	.	.	.
8G\	.	4dM>/	.	4dM>/	.	.	.	.	.	4g\	4gg\
8GG/J	.	.	.	.	.	.	.	.	.	.	.
!	!	!	!	!LO:LB:g=original	!	!	!	!	!	!	!
=51	=51	=51	=51	=51	=51	=51	=51	=51	=51	=51	=51
!	!	!	!	!	!	!	!	!	!	!	!LO:TX:t=P:problem=łuk nad "1"
!	!LO:DY:a	!	!	!	!	!	!	!	!	!	!LO:TX:a:t=1
8C\L	p	8ee\L	.	8ee\L	.	.	.	.	.	2r	2r
!	!	!	!LO:DY:a	!	!	!	!	!	!	!	!
8E\	.	16b-\L	p	(>16b-\L	.	.	.	.	.	.	.
.	.	16cc\JJ	.	16cc\JJ)	.	.	.	.	.	.	.
8F\	.	16a/LL	.	16a/LL	.	.	.	.	.	.	.
.	.	16f/	.	16f/	.	.	.	.	.	.	.
8A\J	.	16e/	.	16e/	.	.	.	.	.	.	.
.	.	16d/JJ	.	16d/JJ	.	.	.	.	.	.	.
=52	=52	=52	=52	=52	=52	=52	=52	=52	=52	=52	=52
!LO:TX:a:t=P:problem=mixed beam	!	!	!	!	!	!	!	!	!	!	!
8G\L	.	4c/	.	4c/	.	.	.	.	.	4g\	4gg\
8F\	.	.	.	.	.	.	.	.	.	.	.
8G\	.	4dM>/	.	4dM>/	.	.	.	.	.	4g\	4gg\
8GG/J	.	.	.	.	.	.	.	.	.	.	.
=53	=53	=53	=53	=53	=53	=53	=53	=53	=53	=53	=53
!	!LO:DY:a	!	!LO:DY:a	!	!	!LO:N:vis=00	!	!LO:N:vis=0	!	!	!
8C/L	f	8c/L	f	8c/	.	0rc	.	1r	.	8c/L	8cc/L
8C/	.	(<32g/LL	.	(<32g/LLL	.	.	.	.	.	8c/	8cc/
.	.	32f/	.	32f/	.	.	.	.	.	.	.
.	.	32e/	.	32e/	.	.	.	.	.	.	.
.	.	32d/JJJ)	.	32d/JJJ)	.	.	.	.	.	.	.
8C/	.	8c/L	.	8c/	.	.	.	.	.	8c/	8cc/
8C/J	.	(<32g/LL	.	(<32g/LLL	.	.	.	.	.	8c/J	8cc/J
.	.	32f/	.	32f/	.	.	.	.	.	.	.
.	.	32e/	.	32e/	.	.	.	.	.	.	.
.	.	32d/JJJ)	.	32d/JJJ)	.	.	.	.	.	.	.
=54	=54	=54	=54	=54	=54	=54	=54	=54	=54	=54	=54
4C/	.	4c/	.	4c/	.	.	.	.	.	4c/	4cc/
4r	.	4r	.	4r	.	.	.	.	.	4r	4r
=55	=55	=55	=55	=55	=55	=55	=55	=55	=55	=55	=55
!	!LO:DY:a	!	!LO:DY:a	!	!LO:DY:a	!	!	!	!	!LO:N:vis=00	!LO:N:vis=00
8C/L	p	24a/LL	p	24cc\LL	p	.	.	8cc\	Vas	0r	0r
.	.	24g/	.	24b-\	.	.	.	.	.	.	.
.	.	24f/J	.	24a\J	.	.	.	.	.	.	.
8C/	.	8e/J	.	8g\J	.	.	.	(>4g\	spi-	.	.
8C/	.	8r	.	8r	.	.	.	.	.	.	.
8C/J	.	8f/	.	8a/	.	.	.	8a\)	.	.	.
!	!	!LO:LB:g=original	!	!	!	!	!	!	!	!	!
=56	=56	=56	=56	=56	=56	=56	=56	=56	=56	=56	=56
8C/L	.	24f/LL	.	24a/LL	.	.	.	[>8a\	-ri-	.	.
.	.	24e/	.	24g/	.	.	.	.	.	.	.
.	.	24d/J	.	24f/J	.	.	.	.	.	.	.
8C/	.	8e/J	.	8g/J	.	.	.	4a\]	-tu-	.	.
8C/	.	8r	.	8r	.	.	.	.	.	.	.
8C/J	.	8dd\	.	8ff\	.	.	.	8ff\	.	.	.
!	!	!	!	!	!	!	!	!LO:PB:g=original	!	!	!
=57	=57	=57	=57	=57	=57	=57	=57	=57	=57	=57	=57
!	!	!	!	!	!	!LO:N:vis=0	!	!	!	!	!
8G\L	.	24dd\LL	.	24ff\LL	.	1rc	.	8ff\	-a-	.	.
.	.	24cc\	.	24ee\	.	.	.	.	.	.	.
.	.	24bn\J	.	24dd\J	.	.	.	.	.	.	.
8G\	.	8cc\J	.	8ee\J	.	.	.	4ee\	.	.	.
8G\	.	8r	.	8r	.	.	.	.	.	.	.
8G\J	.	8f/	.	8dd\	.	.	.	8dd\	.	.	.
=58	=58	=58	=58	=58	=58	=58	=58	=58	=58	=58	=58
!	!LO:DY:b	!	!	!	!LO:DY:b	!	!	!	!	!	!
8C/L	f	4em>/	.	4ccM>\	f	.	.	4cc\	-le	.	.
8C/	.	.	.	.	.	.	.	.	.	.	.
!	!	!	!LO:DY:b	!	!	!	!	!	!	!	!
8E/	.	16cc\LL	f	8cc\L	.	.	.	4r	.	.	.
.	.	(>32dd\L	.	.	.	.	.	.	.	.	.
.	.	32ee\	.	.	.	.	.	.	.	.	.
8D/J	.	32ff\	.	48dd\LL	.	.	.	.	.	.	.
.	.	.	.	48ee\	.	.	.	.	.	.	.
.	.	32gg\)	.	.	.	.	.	.	.	.	.
.	.	.	.	48ff\	.	.	.	.	.	.	.
.	.	32aa\	.	48gg\	.	.	.	.	.	.	.
.	.	.	.	48aa\	.	.	.	.	.	.	.
.	.	32bbn\JJJ	.	.	.	.	.	.	.	.	.
.	.	.	.	48bbn\JJJ	.	.	.	.	.	.	.
!	!	!	!	!LO:LB:g=original	!	!	!	!	!	!	!
=59	=59	=59	=59	=59	=59	=59	=59	=59	=59	=59	=59
*	*	*	*	*	*	*	*ij	*	*	*	*
8C/L	.	16ccc\LL	.	16ccc\LL	.	4c\	o-	4ee\	o-	8c/L	8cc/L
.	.	16bb-\	.	16bb-\	.	.	.	.	.	.	.
8D/	.	16aa\	.	16aa\	.	.	.	.	.	16c/L	16cc/L
.	.	16gg\JJ	.	16gg\JJ	.	.	.	.	.	16c/J	16cc/JJ
8E/	.	16ff\LL	.	16ff\LL	.	8c\	-ra	8ee\	-ra	8c/J	8cc/L
.	.	16ee\	.	16ee\	.	.	.	.	.	.	.
!	!	!	!	!	!	!	!	!	!	!LO:N:vis=4	!
8F/J	.	16dd\	.	16dd\	.	8c\	pro	8ee\	pro	8c/	8cc/J
.	.	16cc\JJ	.	16cc\JJ	.	.	.	.	.	.	.
!LO:LB:g=original	!	!	!	!	!	!	!	!	!	!	!
=60	=60	=60	=60	=60	=60	=60	=60	=60	=60	=60	=60
!LO:TX:a:t=P:problem=mixed beam	!	!LO:TX:a:t=P:problem=mixed beam	!	!LO:TX:a:t=P:problem=mixed beam	!	!	!	!	!	!	!
8G\L	.	8gg\L	.	8gg\L	.	8c\	no-	8ee\	no-	8g\L	8gg\L
8GG/	.	8g/J	.	8g/J	.	8Bn\	-bis	8dd\	-bis	16g\L	16gg\L
*	*	*	*	*	*	*	*Xij	*	*	*	*
.	.	.	.	.	.	.	.	.	.	16g\JJ	16gg\JJ
8BBn/	.	8dd\L	.	8r	.	8r	.	8r	.	4g\	4gg\
8GG/J	.	8bn\J	.	8dd\	.	8B\	Vas	8dd\	Vas	.	.
=61	=61	=61	=61	=61	=61	=61	=61	=61	=61	=61	=61
!	!	!	!	!	!	!	!	!	!	!LO:N:vis=00	!LO:N:vis=00
8C/L	.	16g/LL	.	24ee\LL	.	4G/	spi-	4ee\	ho-	0r	0r
.	.	.	.	24dd\	.	.	.	.	.	.	.
.	.	16g/	.	.	.	.	.	.	.	.	.
.	.	.	.	24cc\J	.	.	.	.	.	.	.
8C/	.	16g/	.	8g\J	.	.	.	.	.	.	.
.	.	16g/JJ	.	.	.	.	.	.	.	.	.
8C/	.	16g/LL	.	8r	.	4G/	-ri-	4ee\	-no-	.	.
.	.	16g/	.	.	.	.	.	.	.	.	.
8C/J	.	16g/	.	8ee\	.	.	.	.	.	.	.
.	.	16g/JJ	.	.	.	.	.	.	.	.	.
=62	=62	=62	=62	=62	=62	=62	=62	=62	=62	=62	=62
*	*	*	*	*	*	*2\right	*	*	*	*	*
8G\L	.	16bn\LL	.	24dd\LL	.	2Bn\	-tua-	2dd\	-ra-	.	.
.	.	.	.	24cc\	.	.	.	.	.	.	.
.	.	16b\	.	.	.	.	.	.	.	.	.
.	.	.	.	24bn\J	.	.	.	.	.	.	.
8G\	.	16b\	.	8g\J	.	.	.	.	.	.	.
.	.	16b\JJ	.	.	.	.	.	.	.	.	.
8G\	.	16b\LL	.	8r	.	.	.	.	.	.	.
.	.	16b\	.	.	.	.	.	.	.	.	.
8G\J	.	16b\	.	8dd\	.	.	.	.	.	.	.
.	.	16b\JJ	.	.	.	.	.	.	.	.	.
!	!	!LO:LB:g=original	!	!	!	!	!	!	!	!	!
=63	=63	=63	=63	=63	=63	=63	=63	=63	=63	=63	=63
!	!	!	!	!LO:TUP:b:problem=klamra łukowa, odwrócone "C" zamiast numeru	!	!	!	!	!	!	!
8D\L	.	16a/LL	.	24cc/LL	.	4.A/	.	4.cc\	.	.	.
.	.	.	.	24bn/	.	.	.	.	.	.	.
.	.	16a/	.	.	.	.	.	.	.	.	.
.	.	.	.	24a/J	.	.	.	.	.	.	.
8D\	.	16a/	.	8d/J	.	.	.	.	.	.	.
.	.	16a/JJ	.	.	.	.	.	.	.	.	.
8D\	.	16a/LL	.	8r	.	.	.	.	.	.	.
.	.	16a/	.	.	.	.	.	.	.	.	.
8D\J	.	16a/	.	8cc\	.	8A/	.	8cc\	-bi-	.	.
.	.	16a/JJ	.	.	.	.	.	.	.	.	.
=64	=64	=64	=64	=64	=64	=64	=64	=64	=64	=64	=64
8G\L	.	8g\L	.	16bn/LL	.	4G/	-lae	4b-\	-le	.	.
.	.	.	.	16g/	.	.	.	.	.	.	.
8G\	.	8bn\	.	16a/	.	.	.	.	.	.	.
.	.	.	.	16b/JJ	.	.	.	.	.	.	.
8Bn\	.	8dd\	.	16cc\LL	.	4r	.	4r	.	.	.
.	.	.	.	16dd\	.	.	.	.	.	.	.
8G\J	.	8cc\J	.	16ee\	.	.	.	.	.	.	.
.	.	.	.	16ff#X\JJ	.	.	.	.	.	.	.
=65	=65	=65	=65	=65	=65	=65	=65	=65	=65	=65	=65
!	!	!	!	!	!	!	!	!	!	!LO:N:vis=00	!LO:N:vis=00
8G\L	.	16bn\LL	.	16gg\LL	.	4d\	o-	4b-\	o-	0r	0r
.	.	16b\	.	16gg\	.	.	.	.	.	.	.
8A\	.	16b\	.	16gg\	.	.	.	.	.	.	.
.	.	16b\JJ	.	16gg\JJ	.	.	.	.	.	.	.
!LO:SIC:s=8Bn	!	!	!	!	!	!	!	!	!	!	!
8B-\	.	16b\LL	.	16gg\LL	.	8d\	-ra	8b-\	-ra	.	.
.	.	16b\	.	16gg\	.	.	.	.	.	.	.
8c\J	.	16b\	.	16gg\	.	8d\	pro	8b-\	pro	.	.
.	.	16b\JJ	.	16gg\JJ	.	.	.	.	.	.	.
=66	=66	=66	=66	=66	=66	=66	=66	=66	=66	=66	=66
!	!	!	!	!LO:TX:a:t=P:problem=mixed beam	!	!	!	!	!	!	!
4d\	.	8a/L	.	24ff#X\LL	.	8d\	no-	8a\	no-	.	.
.	.	.	.	24ee\	.	.	.	.	.	.	.
.	.	.	.	24dd\J	.	.	.	.	.	.	.
.	.	8f#X/J	.	8d/J	.	8d\	-bis	8a\	-bis	.	.
8r	.	8r	.	8r	.	4r	.	4r	.	.	.
8E\	.	8cc\	.	8ee\	.	.	.	.	.	.	.
!	!	!	!	!LO:LB:g=original	!	!	!	!	!	!	!
=67	=67	=67	=67	=67	=67	=67	=67	=67	=67	=67	=67
*	*	*	*	*	*	*	*ij	*	*ij	*	*
8A\L	.	16cc\LL	.	16aa\LL	.	4e\	o-	4cc\	o-	.	.
.	.	16cc\	.	16aa\	.	.	.	.	.	.	.
!LO:SIC:s=8bn	!	!	!	!	!	!	!	!	!	!	!
8B-\	.	16cc\	.	16aa\	.	.	.	.	.	.	.
.	.	16cc\JJ	.	16aa\JJ	.	.	.	.	.	.	.
8c\	.	16cc\LL	.	16aa\LL	.	8e\	-ra	8cc\	-ra	.	.
.	.	16cc\	.	16aa\	.	.	.	.	.	.	.
8d\J	.	16cc\	.	16aa\	.	8e\	pro	8cc\	pro	.	.
.	.	16cc\JJ	.	16aa\JJ	.	.	.	.	.	.	.
!	!	!	!	!	!	!LO:PB:g=original	!	!LO:LB:g=original	!	!	!
=68	=68	=68	=68	=68	=68	=68	=68	=68	=68	=68	=68
!	!	!	!	!LO:TX:a:t=P:problem=mixed beam	!	!	!	!	!	!	!
8e\L	.	8bn/L	.	24gg#X\LL	.	8e\	no-	8bn\	no-	.	.
.	.	.	.	24ff\	.	.	.	.	.	.	.
.	.	.	.	24ee\J	.	.	.	.	.	.	.
8E\J	.	8g#X/J	.	8e/J	.	8e\	-bis	8b\	-bis	.	.
*	*	*	*	*	*	*	*Xij	*	*Xij	*	*
8r	.	8r	.	8r	.	8r	.	8r	.	.	.
8E\	.	8b\	.	8bn\	.	8G#X/	Vas	8b\	Vas	.	.
=69	=69	=69	=69	=69	=69	=69	=69	=69	=69	=69	=69
!	!	!	!	!	!	!	!	!	!	!LO:N:vis=00	!LO:N:vis=00
8A\L	.	8cc\L	.	8cc\L	.	4A\	.	4cc\	in-	0rgg	0rgg
8A\	.	8cc\J	.	8cc\J	.	.	.	.	.	.	.
8F#X\	.	16cc\LL	.	16cc\LL	.	8A\L	in-	8cc\L	.	.	.
.	.	16a\	.	16a\	.	.	.	.	.	.	.
8F#\J	.	16dd\	.	16dd\	.	16Bn\L	.	16dd\L	.	.	.
.	.	16cc\JJ	.	16cc\JJ	.	16A\JJ	.	16cc\JJ	.	.	.
=70	=70	=70	=70	=70	=70	=70	=70	=70	=70	=70	=70
!	!	!LO:SIC:s=8bn	!	!	!	!	!	!	!	!	!
8G\L	.	8b-\L	.	8bn\L	.	4Gn/	-si-	4bn\	-si-	.	.
!	!	!LO:SIC:s=8bn	!	!	!	!	!	!	!	!	!
8G\J	.	8b-\J	.	8b\J	.	.	.	.	.	.	.
*custos:E	*	*	*	*	*	*	*	*	*	*	*
!LO:LB:g=original	!	!LO:SIC:s=16bn	!	!	!	!	!	!	!	!	!
8E\L	.	16b-/LL	.	16b/LL	.	8G/L	-gne	8b\	-gne	.	.
.	.	16g/	.	16g/	.	.	.	.	.	.	.
8E\J	.	16cc/	.	16cc/	.	16A/L	.	16cc\LL	de-	.	.
!	!	!LO:SIC:s=16bn	!	!	!	!	!	!	!	!	!
.	.	16b-/JJ	.	16b/JJ	.	16G/JJ	de-	16b\JJ	.	.	.
!	!	!LO:LB:g=original	!	!	!	!	!	!	!	!	!
=71	=71	=71	=71	=71	=71	=71	=71	=71	=71	=71	=71
8F#X\L	.	8a/L	.	8a/L	.	4.F#X/	-vo-	4.a\	-vo-	.	.
8F#\	.	8a/J	.	8a/J	.	.	.	.	.	.	.
8D\	.	16a/LL	.	16a/LL	.	.	.	.	.	.	.
.	.	16f#X/	.	16f#X/	.	.	.	.	.	.	.
8D\J	.	16b-/	.	16b-/	.	16G/LL	-ci-	16b-\LL	-ci-	.	.
.	.	16a/JJ	.	16a/JJ	.	16F#/JJ	.	16a\JJ	.	.	.
=72	=72	=72	=72	=72	=72	=72	=72	=72	=72	=72	=72
8E\L	.	8a/L	.	8g/L	.	4E/	-o-	8g/	-o-	.	.
!	!	!	!	!	!	!	!	!LO:N:vis=8	!	!	!
8BB-\J	.	8f#X/J	.	8f#X/J	.	.	.	4f#X/	-nis	.	.
8Bn\L	.	16dd#X\LL	.	16ff#X\LL	.	8D#X/	-nis	.	.	.	.
.	.	16dd#\	.	16ff#\	.	.	.	.	.	.	.
8A\J	.	16dd#\	.	16ff#\	.	8d#X\	o-	8ff\	o-	.	.
.	.	16dd#\JJ	.	16ff#\JJ	.	.	.	.	.	.	.
=73	=73	=73	=73	=73	=73	=73	=73	=73	=73	=73	=73
!LO:TX:a:t=P:problem=mixed beam	!	!	!	!	!	!	!	!	!	!LO:N:vis=00	!LO:N:vis=00
8G\L	.	8ee\L	.	16gg\LL	.	8e\	-ra	8gg\	-ra	0rgg	0rgg
.	.	.	.	16ee\	.	.	.	.	.	.	.
8A\	.	8ff#X\J	.	16aa\	.	8cn\	pro	8ff\	pro	.	.
.	.	.	.	16ff\JJ	.	.	.	.	.	.	.
8B-\	.	8ee\L	.	8ee\L	.	8Bn\L	no-	8ee\L	no-	.	.
8BB-/J	.	8dd#X\J	.	8ff\J	.	8d-X\J	.	8ff#X\J	.	.	.
=74	=74	=74	=74	=74	=74	=74	=74	=74	=74	=74	=74
8E\L	.	4ee\	.	4ee\	.	4e\	-bis	4ee\	-bis	.	.
8G\	.	.	.	.	.	.	.	.	.	.	.
8A\	.	16cc#X\LL	.	16ee\LL	.	4c#X\	o-	4ee\	o-	.	.
.	.	16cc#\	.	16ee\	.	.	.	.	.	.	.
8G\J	.	16cc#\	.	16ee\	.	.	.	.	.	.	.
.	.	16cc#\JJ	.	16ee\JJ	.	.	.	.	.	.	.
!	!	!	!	!LO:LB:g=original	!	!	!	!	!	!	!
=75	=75	=75	=75	=75	=75	=75	=75	=75	=75	=75	=75
!LO:TX:a:t=P:problem=mixed beam	!	!	!	!	!	!	!	!	!	!	!
8Fn\L	.	8ddn\L	.	16ffn\LL	.	8dn\	-ra	8ffn\	-ra	.	.
.	.	.	.	16dd\	.	.	.	.	.	.	.
8G\	.	8ee\	.	16gg\	.	8B-X\	pro	8ee\	pro	.	.
.	.	.	.	16ee\JJ	.	.	.	.	.	.	.
8A\	.	8dd\	.	8dd\L	.	8A\L	no-	8dd\L	no-	.	.
8AA/J	.	8cc#X\J	.	8eem>\J	.	8c#X\J	.	8ee\J	.	.	.
!	!	!	!	!	!	!LO:LB:g=original	!	!	!	!	!
=76	=76	=76	=76	=76	=76	=76	=76	=76	=76	=76	=76
8D\L	.	4dd\	.	4dd\	.	4d\	-bis	4dd\	-bis	.	.
8F\	.	.	.	.	.	.	.	.	.	.	.
*	*	*	*	*	*	*	*	*	*ij	*	*
8G\	.	16bn\LL	.	16dd\LL	.	4Bn\	o-	4dd\	o-	.	.
.	.	16b\	.	16dd\	.	.	.	.	.	.	.
8F\J	.	16b\	.	16dd\	.	.	.	.	.	.	.
.	.	16b\JJ	.	16dd\JJ	.	.	.	.	.	.	.
!	!	!	!	!	!	!	!	!LO:LB:g=original	!	!LO:LB:g=original	!
=77	=77	=77	=77	=77	=77	=77	=77	=77	=77	=77	=77
*	*	*	*	*	*	*	*ij	*	*	*	*
!	!	!	!	!	!	!	!	!	!	!LO:N:vis=0	!LO:N:vis=0
!LO:TX:a:t=P:problem=mixed beam	!	!	!	!	!	!	!	!	!	!LO:TX:a:t=2	!
8E\L	.	8cc\L	.	16ee\LL	.	8cn\	-ra	8ee\	-ra	1r	1r
.	.	.	.	16cc\	.	.	.	.	.	.	.
8F\	.	8dd\	.	16ff\	.	8A\	pro	8dd\	pro	.	.
.	.	.	.	16dd\JJ	.	.	.	.	.	.	.
8G\	.	8cc\	.	8cc\L	.	8G\L	no-	8cc\L	no-	.	.
!	!	!LO:SIC:s=8bn	!	!	!	!	!	!	!	!	!
8GG/J	.	8b-\J	.	8ddM>\J	.	8Bn\J	.	8dd\J	.	.	.
=78	=78	=78	=78	=78	=78	=78	=78	=78	=78	=78	=78
8C/L	.	4cc\	.	4cc\	.	4c\	-bis	4cc\	-bis	.	.
*	*	*	*	*	*	*	*	*	*Xij	*	*
8C/	.	.	.	.	.	.	.	.	.	.	.
8C/	.	16cc\LL	.	16gg\LL	.	4B-X\	o-	4ee\	o-	.	.
.	.	16cc\	.	16ee\	.	.	.	.	.	.	.
8C/J	.	16cc\	.	16dd\	.	.	.	.	.	.	.
.	.	16cc\JJ	.	16cc\JJ	.	.	.	.	.	.	.
=79	=79	=79	=79	=79	=79	=79	=79	=79	=79	=79	=79
8C/L	.	16gg\LL	.	16bb-X\LL	.	8B-\	-ra	8ee\	-ra	8c/L	8gg\L
.	.	16gg\	.	16bb-\	.	.	.	.	.	.	.
8C/	.	16gg\	.	16bb-\	.	8B-\	pro	8ee\	pro	16c/L	16gg\L
.	.	16gg\JJ	.	16bb-\JJ	.	.	.	.	.	16c/J	16gg\JJ
8C/	.	16gg\LL	.	16bb-\LL	.	4B-\	no-	4ee\	no-	8c/	8gg\L
.	.	16gg\	.	16bb-\	.	.	.	.	.	.	.
8C/J	.	16gg\	.	16bb-\	.	.	.	.	.	8c/J	8gg\J
.	.	16gg\JJ	.	16bb-\JJ	.	.	.	.	.	.	.
!	!	!LO:LB:g=original	!	!	!	!	!	!	!	!	!
=80	=80	=80	=80	=80	=80	=80	=80	=80	=80	=80	=80
4F\	.	8ff\	.	8aa\	.	4A\	-bis	4ff\	-bis	4f\	4aa\
*	*	*	*	*	*	*	*Xij	*	*	*	*
.	.	56f/LLL	.	(<56f/LLL	.	.	.	.	.	.	.
.	.	56g/	.	56g/	.	.	.	.	.	.	.
.	.	56a/	.	56a/	.	.	.	.	.	.	.
.	.	56b-/	.	56b-/	.	.	.	.	.	.	.
.	.	56cc/	.	56cc/	.	.	.	.	.	.	.
.	.	56dd/	.	56dd/)	.	.	.	.	.	.	.
.	.	56ee/JJJ	.	56ee/JJJ	.	.	.	.	.	.	.
8r	.	8ff\L	.	8ff\L	.	8r	.	8r	.	8r	8r
8A\	.	8cc\J	.	8cc\J	.	8F/	o-	8cc\	o-	8f\	8ff\
=81	=81	=81	=81	=81	=81	=81	=81	=81	=81	=81	=81
4B-X\	.	8dd\	.	8dd\	.	4F/	-ra	4dd\	-ra	4f\	4ff\
.	.	56g/LLL	.	(<56g/LLL	.	.	.	.	.	.	.
.	.	56a/	.	56a/	.	.	.	.	.	.	.
.	.	56b-/	.	56bn/	.	.	.	.	.	.	.
.	.	56cc/	.	56cc/	.	.	.	.	.	.	.
.	.	56dd/	.	56dd/	.	.	.	.	.	.	.
.	.	56ee/	.	56ee/)	.	.	.	.	.	.	.
.	.	56ff/JJJ	.	56ff/JJJ	.	.	.	.	.	.	.
8r	.	8gg\L	.	8gg\L	.	8r	.	8r	.	8r	8r
*custos:E	*	*	*	*	*	*	*	*	*	*	*
!LO:LB:g=original	!	!	!	!	!	!	!	!	!	!	!
*	*	*	*	*	*	*	*	*	*ij	*	*
8Bn\	.	8dd\J	.	8dd\J	.	8G/	o-	8dd\	o-	8g\	8gg\
!	!	!	!	!LO:LB:g=original	!	!	!	!	!	!	!LO:LB:g=original
=82	=82	=82	=82	=82	=82	=82	=82	=82	=82	=82	=82
4c\	.	8ee\	.	8ee\	.	4G/	-ra	4ee\	-ra	4g\	4gg\
.	.	56a\LLL	.	(>56a\LLL	.	.	.	.	.	.	.
.	.	(>56b-\	.	56b-\	.	.	.	.	.	.	.
.	.	56cc#X\	.	56cc#X\	.	.	.	.	.	.	.
.	.	56dd\	.	56dd\	.	.	.	.	.	.	.
.	.	56ee\	.	56ee\	.	.	.	.	.	.	.
.	.	56ff\)	.	56ff\)	.	.	.	.	.	.	.
.	.	56gg\JJJ	.	56gg\JJJ	.	.	.	.	.	.	.
8r	.	8aa\L	.	8aa\L	.	8r	.	8r	.	8r	8r
*	*	*	*	*	*	*	*ij	*	*	*	*
8c#X\	.	8ee\J	.	8ee\J	.	8B-/	o-	8ee\	o-	8a\	8aa\
=83	=83	=83	=83	=83	=83	=83	=83	=83	=83	=83	=83
4d\	.	8ff\	.	8ff\L	.	4A/	-ra	4ff\	-ra	4a\	4aa\
.	.	(>56b-X\L	.	(>56b-X\LL	.	.	.	.	.	.	.
.	.	56cc\	.	56cc\	.	.	.	.	.	.	.
.	.	56dd\	.	56dd\	.	.	.	.	.	.	.
.	.	56ee\	.	56ee\	.	.	.	.	.	.	.
.	.	56ff\	.	56ff\	.	.	.	.	.	.	.
.	.	56gg\)	.	56gg\)	.	.	.	.	.	.	.
.	.	56aa\J	.	56aa\JJJ	.	.	.	.	.	.	.
8r	.	8bb-X\L	.	8bb-\L	.	8r	.	8r	.	8r	8r
8D\	.	8ff\J	.	8ff\J	.	8B-\	o-	8ff\	o-	8b-\	8bb-\
=84	=84	=84	=84	=84	=84	=84	=84	=84	=84	=84	=84
4E\	.	8gg\	.	8gg\	.	4B-\	-ra	4gg\	-ra	4b-\	4bb-\
.	.	(>56cc\LLL	.	56cc\LLL	.	.	.	.	.	.	.
.	.	56dd\	.	56dd\	.	.	.	.	.	.	.
.	.	56ee\	.	56ee\	.	.	.	.	.	.	.
.	.	56ff\)	.	56ff\	.	.	.	.	.	.	.
.	.	56gg\	.	56gg\	.	.	.	.	.	.	.
.	.	56aa\	.	56aa\	.	.	.	.	.	.	.
.	.	56bb-\JJJ	.	56bb-\JJJ	.	.	.	.	.	.	.
8r	.	8ccc\L	.	8ccc\L	.	8r	.	8r	.	8r	8r
8E\	.	8gg\J	.	8gg\J	.	8B-\	o-	8gg\	o-	8c/	8gg\
*	*	*	*	*	*	*	*	*	*Xij	*	*
!	!	!LO:LB:g=original	!	!	!	!	!	!	!	!	!
=85	=85	=85	=85	=85	=85	=85	=85	=85	=85	=85	=85
!	!	!	!	!LO:TUP:a:problem=klamra łukowa, odwrócone "C" zamiast numeru	!	!	!	!	!	!	!
8F\L	.	4ff\	.	12aa\L	.	8A/	-ra	8ff\	-ra	4f\	4aa\
.	.	.	.	12gg\	.	.	.	.	.	.	.
16A\L	.	.	.	.	.	8A/	pro	8ff\	pro	.	.
*	*	*	*	*	*	*	*Xij	*	*	*	*
.	.	.	.	12ff\J	.	.	.	.	.	.	.
16B-\JJ	.	.	.	.	.	.	.	.	.	.	.
!LO:TX:a:t=P:problem=mixed beam	!	!	!	!	!	!	!	!	!	!	!
8c\L	.	4eem>\	.	4ggM>\	.	4GM>/	no-	4ee\	no-	4c/	4ggM>\
8C/J	.	.	.	.	.	.	.	.	.	.	.
!	!	!	!	!	!	!LO:LB:g=original	!	!	!	!	!
=86	=86	=86	=86	=86	=86	=86	=86	=86	=86	=86	=86
!LO:TX:a:t=P:problem=Da Capo Final na pięciolinii	!	!	!	!	!	!	!	!	!	!	!
!LO:TX:i:b:t=Da Capo Final	!	!	!	!	!	!	!	!	!	!LO:TX:a:t=P:problem=mixed beam	!
!	!	!	!	!LO:TUP:a:problem=klamra łukowa, odwrócone "C" zamiast numer	!	!	!	!	!	!	!
2ryy	.	16dd\LL	.	24ff\LL	.	4A/	-bis	4ff\	-bis	8A/L	8ff\L
.	.	.	.	24ee\	.	.	.	.	.	.	.
.	.	16cc\	.	.	.	.	.	.	.	.	.
.	.	.	.	24dd\J	.	.	.	.	.	.	.
.	.	16b-\	.	8cc\J	.	.	.	.	.	8a\	8ccc\
.	.	16a\JJ	.	.	.	.	.	.	.	.	.
!	!	!LO:TX:a:t=P:=Da Capo ad Finis na pięciolinii:problem	!	!LO:TX:a:t=P:problem=Da Capo na pięciolinii	!	!	!	!	!	!	!
!	!	!LO:TX:i:b:t=Da Capo ad Finis	!	!LO:TX:i:b:t=Da Capo	!	!	!	!	!	!	!
.	.	4ryy	.	4ryy	.	4r	.	4r	.	8a\	8ccc\
.	.	.	.	.	.	.	.	.	.	8b-\J	8ddd\J
=87	=87	=87	=87	=87	=87	=87	=87	=87	=87	=87	=87
!	!	!	!	!	!	!LO:N:vis=00	!	!LO:N:vis=00	!	!	!
2ryy	.	2ryy	.	2ryy	.	0r	.	0r	.	8r	8r
.	.	.	.	.	.	.	.	.	.	8a\L	8ccc\L
.	.	.	.	.	.	.	.	.	.	8a\	8ccc\
.	.	.	.	.	.	.	.	.	.	8g\J	8bb-\J
=88	=88	=88	=88	=88	=88	=88	=88	=88	=88	=88	=88
2ryy	.	2ryy	.	2ryy	.	.	.	.	.	8r	8r
.	.	.	.	.	.	.	.	.	.	8f\L	8aa\L
.	.	.	.	.	.	.	.	.	.	8f\	8aa\
.	.	.	.	.	.	.	.	.	.	8c\J	8gg\J
=89	=89	=89	=89	=89	=89	=89	=89	=89	=89	=89	=89
!	!	!	!	!	!	!	!	!	!	!LO:TX:a:t=P:problem=mixed beam	!
2ryy	.	2ryy	.	2ryy	.	.	.	.	.	8A/L	8ff\L
.	.	.	.	.	.	.	.	.	.	16f\L	16aa\L
.	.	.	.	.	.	.	.	.	.	16f\JJ	16aa\JJ
.	.	.	.	.	.	.	.	.	.	4f\	4aa\
=90	=90	=90	=90	=90	=90	=90	=90	=90	=90	=90	=90
!	!	!	!	!	!	!	!	!	!	!LO:N:vis=00	!
!	!	!	!	!	!	!	!	!	!	!LO:TX:a:t=P:problem=łuk nad "4"	!LO:N:vis=00
2ryy	.	2ryy	.	2ryy	.	.	.	.	.	0r	0r
=91	=91	=91	=91	=91	=91	=91	=91	=91	=91	=91	=91
!	!	!	!	!	!	!LO:N:vis=00	!	!LO:N:vis=00	!	!	!
2ryy	.	2ryy	.	2ryy	.	0r	.	0r	.	.	.
=92	=92	=92	=92	=92	=92	=92	=92	=92	=92	=92	=92
2ryy	.	2ryy	.	2ryy	.	.	.	.	.	.	.
=93	=93	=93	=93	=93	=93	=93	=93	=93	=93	=93	=93
2ryy	.	2ryy	.	2ryy	.	.	.	.	.	.	.
!	!	!	!	!	!	!	!	!	!	!LO:LB:g=original	!
=94	=94	=94	=94	=94	=94	=94	=94	=94	=94	=94	=94
2ryy	.	2ryy	.	2ryy	.	.	.	.	.	8c/L	8gg\L
.	.	.	.	.	.	.	.	.	.	8r	8r
.	.	.	.	.	.	.	.	.	.	8c/J	8gg\J
.	.	.	.	.	.	.	.	.	.	8r	8r
!	!	!	!	!	!	!	!	!LO:LB:g=original	!	!	!
=95	=95	=95	=95	=95	=95	=95	=95	=95	=95	=95	=95
!	!	!	!	!	!	!LO:N:vis=00	!	!LO:N:vis=00	!	!	!
2ryy	.	2ryy	.	2ryy	.	0rc	.	0rcc	.	8c/L	8gg\L
.	.	.	.	.	.	.	.	.	.	8g/J	8bb-\J
.	.	.	.	.	.	.	.	.	.	8qqg/	8qqbb-/
.	.	.	.	.	.	.	.	.	.	4f\	4aa\
=96	=96	=96	=96	=96	=96	=96	=96	=96	=96	=96	=96
2ryy	.	2ryy	.	2ryy	.	.	.	.	.	8c/L	8gg\L
.	.	.	.	.	.	.	.	.	.	8r	8r
.	.	.	.	.	.	.	.	.	.	8c/J	8gg\J
.	.	.	.	.	.	.	.	.	.	8r	8r
!	!	!	!	!	!	!	!	!	!	!	!LO:LB:g=original
=97	=97	=97	=97	=97	=97	=97	=97	=97	=97	=97	=97
2ryy	.	2ryy	.	2ryy	.	.	.	.	.	8c/L	8gg\L
.	.	.	.	.	.	.	.	.	.	8g/J	8bb-\J
.	.	.	.	.	.	.	.	.	.	8qqg/	8qqbb-/
.	.	.	.	.	.	.	.	.	.	4f\	4aa\
=98	=98	=98	=98	=98	=98	=98	=98	=98	=98	=98	=98
2ryy	.	2ryy	.	2ryy	.	.	.	.	.	4f\	4aa\
.	.	.	.	.	.	.	.	.	.	4r	4r
=99	=99	=99	=99	=99	=99	=99	=99	=99	=99	=99	=99
!	!	!	!	!	!	!LO:N:vis=00	!	!LO:N:vis=00	!	!	!
2ryy	.	2ryy	.	2ryy	.	0rc	.	0rcc	.	4A/	4ff\
.	.	.	.	.	.	.	.	.	.	4c/	4ggM>\
=100	=100	=100	=100	=100	=100	=100	=100	=100	=100	=100	=100
2ryy	.	2ryy	.	2ryy	.	.	.	.	.	4f\	4aa\
.	.	.	.	.	.	.	.	.	.	4r	4r
=101	=101	=101	=101	=101	=101	=101	=101	=101	=101	=101	=101
2ryy	.	2ryy	.	2ryy	.	.	.	.	.	4A/	4ffM>\
.	.	.	.	.	.	.	.	.	.	4c/	4gg\
=102	=102	=102	=102	=102	=102	=102	=102	=102	=102	=102	=102
2ryy	.	2ryy	.	2ryy	.	.	.	.	.	8A/L	8ff\L
.	.	.	.	.	.	.	.	.	.	8A/	8ff\
.	.	.	.	.	.	.	.	.	.	8A/	8ff\
.	.	.	.	.	.	.	.	.	.	8A/J	8ff\J
=103	=103	=103	=103	=103	=103	=103	=103	=103	=103	=103	=103
2ryy	.	2ryy	.	2ryy	.	2re	.	2rdd	.	4A/	4ff\
!	!	!	!	!	!	!	!	!	!	!	!LO:TX:a:t=P:problem=Verk Solo Cito na pięciolinii
!	!	!	!	!	!	!	!	!	!	!	!LO:TX:i:b:t=Verk Solo Cito
.	.	.	.	.	.	.	.	.	.	4r	4r
==	==	==	==	==	==	==	==	==	==	==	==
*-	*-	*-	*-	*-	*-	*-	*-	*-	*-	*-	*-
!!!system-decoration: [(s1,s2)][(s3,s4)][(s5,s6,s7)]
!!!RDF**kern: > = above
!!!RDF**kern: < = below
!!!RDF**dynam: p = "pia:"
!!!RDF**dynam: f = "for"
!!!EED: Mateusz Mrugas
!!!EEV: 2020-10-24
!!!ENC: Berenika Jozajtis
!!!END: 2020-05-23
!!!YEC: Copyright 2022 Narodowy Instytut Fryderyka Chopina (https://polishscores.org)
!!!YEM: License CC-BY-4.0 (https://creativecommons.org/licenses/by/4.0)
